X:1
T:The Lambs of the Upper Fold
T:The Lambs of the Upper Fold
T:Knowles Shaw 
T:Knowles Shaw, 1868
T:Public Domain Courtesy of the Cyber Hymnal™
T:Public Domain Courtesy of the Cyber Hymnal™
C:Knowles Shaw
Z:Public Domain
Z:Courtesy of the Cyber Hymnal™
%%score ( 1 2 ) ( 3 4 )
L:1/8
Q:1/4=105
M:4/4
K:D
V:1 treble 
V:2 treble 
V:3 bass 
V:4 bass 
V:1
 (D[CE]) | [DF]2 [DF]2 [DF]2 [DF]2 | [FA]2 [DF]2 [DF]2 (D[CE]) | [DF]2 ([DF][EG]) [FA]2 [DF]2 | %4
w: 1.~Many *|child- ren dear to|us while here Have *|gone, but * we are|
w: 2.~I *|see the throne, I|hear the song, ’Mid~the *|angels on~the * oth- er|
w: 3.~Now *|let us live— to|Je- sus give Our *|strength while * young and|
w: 4.~Then *|let us go to~the|land a- bove, And~be *|with the * saints en-|
 [CE]6 D[CE] | [DF]2 [DF]2 [DF]2 ([EG][CG]) | [DA]2 [DF]2 [DF]2 [FA]2 | %7
w: told That our|ab- sent ones in *|Heav’n ap- pear, A-|
w: shore; In the|pas- tures green they~are *|ev- er seen, On|
w: old; So when|we are gone we~may *|rest at home, And|
w: rolled, T- o|bear the palm, and *|wear the crown, And|
 [GB]2 ([GB][Ac]) !fermata![Gd]2 [GB]2 | [FA]6 D[CE] | [DF]2 [DF][DA] [DF]2 [CE]2 | D4 z2 || %11
w: mong the * saints en-|rolled, As the|lambs of the up- per|fold.|
w: Ca- naan’s * peace- ful|shore, In the|land where they weep no|more.|
w: walk the * streets of|gold, With the|lambs of the up- per|fold.|
w: share that * bliss un-|told, With the|lambs of the up- per|fold.|
"^Refrain" ([DF][FA]) | [GB]2 [GB]2 [Gd]2 [GB]2 | [GB]2 [FA]2 [FA]2 [DF][FA] | %14
w: |||
w: |||
w: |||
w: |||
 [GB]2 [GB][Ac] [Bd]2 [Ac][GB] | [FA]2 [DF]2 !fermata![CE]2 (D[CE]) | [DF]2 [DF]2 [DF]2 [DF][FA] | %17
w: |||
w: |||
w: |||
w: |||
 [GB]2 [Gd]2 !fermata![Gd]2 ([Ac][GB]) | [FA]2 D[CE] [DF]2 [CE]2 | D4 z2 |] %20
w: |||
w: |||
w: |||
w: |||
V:2
 D x | x8 | x6 D x | x8 | x6 D x | x8 | x8 | x8 | x6 D x | x8 | D4 x2 || x2 | x8 | x8 | x8 | %15
 x6 D x | x8 | x8 | x2 D x5 | D4 x2 |] %20
V:3
 ([D,F,][D,G,]) | [D,A,]2 [D,A,]2 [D,A,]2 [D,A,]2 | [D,A,]2 [D,A,]2 [D,A,]2 (F,G,) | %3
w: |||
 [D,A,]2 ([D,A,][D,A,]) [D,D]2 [D,A,]2 | [A,,A,]6 [D,F,][D,G,] | [D,A,]2 [D,A,]2 [D,A,]2 A,2 | %6
w: ||* * * For|
 [F,A,]2 [D,A,]2 [D,A,]2 [D,D]2 | [G,D]2 [G,D]2 !fermata![G,B,]2 [G,D]2 | [D,D]6 [D,F,][D,G,] | %9
w: |||
 [D,A,]2 [D,A,][F,A,] A,2 [A,,G,]2 | [D,F,]4 z2 || [D,D]2 | [G,D]2 [G,D]2 [B,D]2 [G,D]2 | %13
w: * * * Je- *||sus|leads the ten- der|
 [D,D]2 [D,D]2 [D,D]2 [D,D][D,D] | [G,D]2 [G,D][G,D] [G,D]2 [G,D][G,D] | %15
w: lambs, They are now in|the land Where they ne’er grow|
 [D,D]2 [D,A,]2 !fermata![A,,A,]2 A,2 | [D,A,]2 [D,A,]2 [D,A,]2 [D,A,][D,D] | %17
w: old; How dear to|us are the lov- ing|
 [G,D]2 [G,B,]2 !fermata![G,B,]2 [G,D]2 | [A,D]2 [F,A,][G,A,] A,2 [A,,G,]2 | [D,F,]4 z2 |] %20
w: lambs, The lambs of|the up- per fold. *||
V:4
 x2 | x8 | x6 D,2 | x8 | x8 | x6 (D,E,) | x8 | x8 | x8 | x4 A,2 x2 | x6 || x2 | x8 | x8 | x8 | %15
 x6 (F,E,) | x8 | x8 | x4 A,2 x2 | x6 |] %20

